X: 322
T: Mr MOORE
C: D. MACINTYRE
R: Strathspey
B: Glen Collection p.32 #2
Z: 2011 John Chambers <jc:trillian.mit.edu>
M: C
L: 1/8
V: 1 clef=treble middle=B
V: 2 clef=bass middle=d
%%score {1 | 2}
K: Cm
%
V: 1
c |\
G<CC>D E>FGB | F>G{G}F>E DB,B,c | G<CC>D E>FG>B | F>B, G/F/E/D/ ECCc |
G<CC>D E>FGB | F>G{G}F>E DB,B,c | G>ce>c g>ce>c | d>B G/F/E/D/ ECC ||
G |\
c>deg c<ceg | B<Bd>c B/c/d/e/ f/g/=a/b/ | Tc>deg cgeg | B>d{g}f>{e}d eccG |
c>ge>g c>ge>g | B>bd>f B>dF>B | G>=Bc>d e>cg>e | d>B G/F/E/D/ ECC |]
%
V: 2
z |\
c2[g2e2] [c'2e2][b2e2] | B2[b2d2] [f2d2][f2d2] |\
c2[g2e2] [c'2e2][b2e2] | B2=B2 c2[g2e2c2] |
c2[g2e2] [c'2e2][b2e2] | B2[b2d2] [f2d2][f2d2] |\
c2[c'2g2] e2[c'2g2] | B2=B2 c2[gec] ||
z |\
c2[c'2g2] e2[c'2g2] | b2[f'2b2] [f'2b2][d'2b2] |\
[c'2c2][c'2g2] [c'2e2][c'2g2] | b2=b2 c'2c2 |
c2[c'2g2] e2[c'2g2] | b2[b2f2] [b2f2][b2d2] |\
e2d2 c2[c'2g2] | B2=B2 c2[gec] |]
